!!!!SEGMENT: pl-sa--144-a-iii-44--001-002_anonim--msza-dominikanska-laudamus.krn
!!!cenid: 17xx:1668
!!!COM: Anonim
!!!COM-rismID: pe30004985
!!!CDT:
!!!CNT:
!!!OPR: Msza Dominikańska
!!!OTL: Laudamus
!!!OMV: 002
!!!PDT:
!!!AGN: Sacred; Mass
!!!YEC: Copyright 2022 Narodowy Instytut Fryderyka Chopina (https://polishscores.org)
!!!YEM: License CC-BY-4.0 (https://creativecommons.org/licenses/by/4.0)
!!!SMS-siglum: PL-SA
!!!SMS-shelfmark: 144/A III 44
!!!SMS-shelfwork: 001-002 M
!!!SMS-variant: Canto Primo PL-SA 144/A III 44:1
!!!SMS-altvar: Canto PL-SA 144/A III 44:9-10
!!!NIFC-rismSourceID: 1001035510
!!!NIFC-rismChildID: 1001035510
!!!NIFC-islandoraID: none
!!!URL-pdf-islandora:
!!!URL-scan: https://bc.bdsandomierz.pl/dlibra/publication/1501/edition/1469/content @EN{Scan in the Sandomierz Diocese Digital Library} @PL{Skany w portalu Cyfrowa Biblioteka Diecezjalna w Sandomierzu}
!!!IIIF:
!!!ONB-nifc: UWAGA: części Mszy: 1. Kyrie, 2. Laudamus, 3. Patrem, 4. Sanctus, 5. Agnus Dei
!!!AIN: 2 soprn
!!!key:
**kern	**text	**kern	**text
*part2	*	*part1	*
*staff2	*	*staff1	*
*I"Canto 2do.	*	*I"Canto Primo_	*
*I'S 2	*	*I'S 1	*
*Isoprn	*	*Isoprn	*
*ICvox	*	*ICvox	*
*clefC1	*	*clefC1	*
*k[b-]	*	*k[b-]	*
*F:	*	*F:	*
*M2/2	*	*M2/2	*
*met(c|)	*	*met(c|)	*
=1	=1	=1	=1
!	!	!LO:TX:t=P:problem=zgodnie z RISM "Other parts presumably missing"	!
!LO:TX:t=P:problem=oznaczenie metryczne C z kropką	!	!LO:TX:t=P:problem=oznaczenie metryczne obrócone alla breve	!
1a	Lau-	1cc	Lau-
=2	=2	=2	=2
*	*	*2\right	*
2.f/	.	2.a\	.
4f/	.	4a\	.
=3	=3	=3	=3
*2\right	*	*	*
2.a\	-da-	2.cc\	-da-
8g/L	.	8b-\L	.
8f/J	.	8a\J	.
=4	=4	=4	=4
2g/	.	2b-\	.
2e/	.	2g\	.
=5	=5	=5	=5
2.f/	.	2.a\	.
8e/L	.	8g/L	.
8d/J	.	8f/J	.
=6	=6	=6	=6
2e/	.	2g/	.
2e/	.	2e/	.
=7	=7	=7	=7
2.f/	.	2.f/	.
4e/	.	4g/	.
=8	=8	=8	=8
2f/	.	2a\	.
2e/	.	2g\	.
!	!	!LO:LB:g=original	!
=9	=9	=9	=9
2f/	.	2f/	.
2g/	.	2b-\	.
=10	=10	=10	=10
2g\	.	2b-\	.
2f\	.	2a\	.
!LO:LB:g=original	!	!	!
=11	=11	=11	=11
2.g/	.	2.b-\	.
4g/	-mus	4b-\	-mus
=12	=12	=12	=12
1f	te	1a	te
=13	=13	=13	=13
2f/	lau-	2a\	lau-
2g/	.	2b-\	.
=14	=14	=14	=14
2a\	-da-	2cc\	-da-
2b-\	.	2dd\	.
=15	=15	=15	=15
2a\	.	2cc\	.
2g\	.	2b-\	.
=16	=16	=16	=16
2.f/	.	2.a\	.
4f/	-mus	4a\	-mus
=17	=17	=17	=17
2e/	te	2g/	te
2re	.	2r	.
=18	=18	=18	=18
1f	lau-	1a-X	lau-
=19	=19	=19	=19
2g/	-da-	2b-\	-da-
2e/	.	2g\	.
!	!	!LO:LB:g=original	!
=20	=20	=20	=20
1f	.	1a	.
=21	=21	=21	=21
1e	.	1g	.
=22	=22	=22	=22
2g\	.	2b-\	.
2e/	.	2g\	.
=23	=23	=23	=23
1f	.	1a-X	.
!LO:LB:g=original	!	!	!
=24	=24	=24	=24
2.e/	.	2.g\	.
4e/	-mus	4g\	-mus
=25	=25	=25	=25
1f	te	1an	te
=26||	=26||	=26||	=26||
2f/	Gra-	2a\	Gra-
4g/	-ti-	4b-\	-ti-
4a/	-as	4cc\	-as
=27	=27	=27	=27
2b-\	a-	2dd\	A-
4a\	-gi-	4cc\	-gi-
4b-\	-mus	4dd\	-mus
=28	=28	=28	=28
1g	ti-	1b-	ti-
=29	=29	=29	=29
1f	-bi	1a	-bi
=30	=30	=30	=30
2e/	pro-	2g\	pro-
2e/	-pter	2g\	-pter
=31	=31	=31	=31
2f/	Ma-	2a\	ma-
2f/	-gnam	2a\	-gnam
!	!	!LO:LB:g=original	!
=32	=32	=32	=32
2d/	glo-	2bn\	glo-
4e/	-ri-	4cc\	-ri-
4e/	-am	4cc\	-am
=33	=33	=33	=33
2e/	tu-	2cc\	tu-
2d/	.	2bn\	.
=34	=34	=34	=34
1e	-am	1cc	-am.
!LO:LB:g=original	!	!	!
=35	=35	=35	=35
2g/	pro-	2b-\	pro-
2g/	-pter	2b-\	-pter
=36	=36	=36	=36
2f/	Ma-	2a\	ma-
2f/	-gnam	2a\	-gnam
=37	=37	=37	=37
2g\	glo-	2b-\	glo-
4a\	-ri-	4cc\	-ri-
4b-\	-am	4dd\	-am
=38	=38	=38	=38
2a\	tu-	2cc\	tu-
4g/	.	4b-\	.
4f/	.	4a\	.
=39	=39	=39	=39
1e	.	1g	.
=40	=40	=40	=40
1f	-am,	1a	-am
=41||	=41||	=41||	=41||
2f/	Do-	2a\	Do-
4f/	-mi-	4a\	-mi-
4f/	-ne	4a\	-ne
!	!	!LO:PB:g=original	!
=42	=42	=42	=42
2g/	Fil-	2b-\	Fil-
2g/	-li	2b-\	-li
=43	=43	=43	=43
2e/	u-	2g\	u-
2f/	-ni-	2a\	-ni-
=44	=44	=44	=44
2.g/	-ge-	2.b-\	-ge-
4f/	-ni-	4a\	-ni-
!LO:LB:g=original	!	!	!
=45	=45	=45	=45
1g	-te	1b-	-te
=46	=46	=46	=46
2a\	Je-	2cc\	Je-
2b-\	.	2dd\	.
=47	=47	=47	=47
2b-\	.	2dd\	.
2a\	-su	2cc\	-su
=48	=48	=48	=48
2e/	chri-	2cc\	chri-
2d/	.	2bn\	.
=49	=49	=49	=49
1e	-ste	1cc	-ste
=50	=50	=50	=50
1f	Je-	1a	Je-
=51	=51	=51	=51
1g	-su	1b-X	-su
=52	=52	=52	=52
1g	chri-	1b-	Chri-
=53	=53	=53	=53
1f	-ste	1a	-ste
!	!	!LO:LB:g=original	!
=54||	=54||	=54||	=54||
!	!	!LO:TX:a:i:t=allo.	!
1a	Cum	1cc	Cum
=55	=55	=55	=55
2b-\	San-	2dd\	San-
2g\	.	2b-\	.
=56	=56	=56	=56
2a\	.	2cc\	.
2f/	-cto	2a\	-cto
=57	=57	=57	=57
2.g\	Spi-	2.b-\	Spi-
4e/	-ri-	4g\	-ri-
=58	=58	=58	=58
!LO:TX:b:i:t=vertatur	!	!	!
1f	-tu	1a	-tu
!LO:PB:g=original	!	!	!
=59	=59	=59	=59
1e	in	1g	in
=60	=60	=60	=60
2e/	glo-	2g\	glo-
2f/	.	2a\	.
=61	=61	=61	=61
2e/	.	2g\	.
2a\	.	2cc\	.
=62	=62	=62	=62
2.g\	.	2.b-\	.
4f\	-ri-	4a\	-ri-
=63	=63	=63	=63
1e	-a	1g	-a
=64	=64	=64	=64
2f/	De-	2a\	De-
2a\	-i	2cc\	-i
=65	=65	=65	=65
2.g\	Pa-	2.b-\	Pa-
4f/	-tris	4a\	-tris
!	!	!LO:LB:g=original	!
=66	=66	=66	=66
1e	a-	1g	a-
=67	=67	=67	=67
1f	-men	1a	-men
=68	=68	=68	=68
2f/	a-	2a\	A-
2g/	.	2b-\	.
=69	=69	=69	=69
2.e/	.	2.g\	.
4f/	.	4a\	.
=70	=70	=70	=70
4g/	.	4b-\	.
4f/	.	4a\	.
4g/	.	4b-\	.
4e/	.	4g\	.
!LO:LB:g=original	!	!	!
=71	=71	=71	=71
1f	-men	1a	-men
=72	=72	=72	=72
2a\	A-	2cc\	A-
2b-\	.	2dd\	.
=73	=73	=73	=73
2g\	.	2b-\	.
2a\	.	2cc\	.
=74	=74	=74	=74
4b-\	.	4dd\	.
4a\	.	4cc\	.
4b-\	.	4dd\	.
4g\	.	4b-\	.
=75	=75	=75	=75
1a	.	1cc	.
=76	=76	=76	=76
2f/	.	2a\	.
2g/	.	2b-\	.
!	!	!LO:LB:g=original	!
=77	=77	=77	=77
2e/	.	2g\	.
2f/	.	2a\	.
=78	=78	=78	=78
4g/	.	4b-\	.
4f/	.	4a\	.
4g/	.	4b-\	.
4e/	.	4g\	.
=79	=79	=79	=79
2.f/	.	2.a\	.
4d/	.	4bn\	.
=80	=80	=80	=80
2.e/	.	2.cc\	.
4d/	.	4bn\	.
=81	=81	=81	=81
1e	-men	1cc	-men
!LO:LB:g=original	!	!	!
=82	=82	=82	=82
2f/	a-	2a\	A
4g/	.	(4b-\	.
4a/	.	4cc\)	.
=83	=83	=83	=83
4b-\	.	(4dd\	.
4a\	.	4cc\	.
4g\	.	4b-\	.
4f\	.	4a\)	.
=84	=84	=84	=84
2e/	.	2g\	.
2f/	.	2a\	.
=85	=85	=85	=85
1g	.	1b-	.
=86	=86	=86	=86
1f	.	1a	.
!	!	!LO:LB:g=original	!
=87	=87	=87	=87
2.g\	.	2.b-\	.
4a\	.	4cc\	.
=88	=88	=88	=88
!LO:TX:a:i:t=adagio	!	!LO:TX:a:i:t=Adagio	!
1b-	.	1dd	A-
=89	=89	=89	=89
1a	-men	1cc	-men
==	==	==	==
*-	*-	*-	*-
!!!system-decoration: [(s1,s2)]
!!!ENC: Andrzej Kubiczek
!!!END: 2020-12-10
!!!ENC: Marta Lawrence
!!!END: 2022-03-28
